Sources/FrostedUI/Resources/Icons.xcassets/converge32.imageset/converge-32.svg

<svg width="32" height="32" viewBox="0 0 32 32" fill="none" xmlns="http://www.w3.org/2000/svg" data-fui-icon="true">
  <path
    d="M5.25 3.25C7.06421 3.25 8.57734 4.53834 8.9248 6.25H11.5664C13.3421 6.25 14.9585 7.27431 15.7168 8.87988L18.7246 15.25H27.5059L24.2051 11.7656C23.9205 11.4649 23.9338 10.9898 24.2344 10.7051C24.5351 10.4205 25.0102 10.4338 25.2949 10.7344L29.7949 15.4844C30.0686 15.7736 30.0686 16.2264 29.7949 16.5156L25.2949 21.2656C25.0102 21.5662 24.5351 21.5795 24.2344 21.2949C23.9338 21.0102 23.9205 20.5351 24.2051 20.2344L27.5059 16.75H18.7246L15.7168 23.1201C14.9585 24.7257 13.3421 25.75 11.5664 25.75H8.9248C8.57734 27.4617 7.06421 28.75 5.25 28.75C3.17893 28.75 1.5 27.0711 1.5 25C1.5 22.9289 3.17893 21.25 5.25 21.25C7.06421 21.25 8.57734 22.5383 8.9248 24.25H11.5664C12.7619 24.25 13.8509 23.5605 14.3613 22.4795L17.4209 16L14.3613 9.52051C13.8509 8.43952 12.7619 7.75 11.5664 7.75H8.9248C8.57734 9.46166 7.06421 10.75 5.25 10.75C3.17893 10.75 1.5 9.07107 1.5 7C1.5 4.92893 3.17893 3.25 5.25 3.25ZM5.25 22.75C4.00736 22.75 3 23.7574 3 25C3 26.2426 4.00736 27.25 5.25 27.25C6.49264 27.25 7.5 26.2426 7.5 25C7.5 23.7574 6.49264 22.75 5.25 22.75ZM5.25 4.75C4.00736 4.75 3 5.75736 3 7C3 8.24264 4.00736 9.25 5.25 9.25C6.49264 9.25 7.5 8.24264 7.5 7C7.5 5.75736 6.49264 4.75 5.25 4.75Z"
    fill="currentColor"
  />
</svg>

<svg xmlns="http://www.w3.org/2000/svg" width="32" height="32" fill="none" data-fui-icon="true" viewBox="0 0 32 32"><path fill="currentColor" d="M5.25 3.25a3.75 3.75 0 0 1 3.675 3h2.641a4.59 4.59 0 0 1 4.15 2.63l3.009 6.37h8.78l-3.3-3.484a.75.75 0 0 1 1.09-1.032l4.5 4.75a.75.75 0 0 1 0 1.032l-4.5 4.75a.75.75 0 0 1-1.09-1.032l3.3-3.484h-8.78l-3.008 6.37a4.59 4.59 0 0 1-4.15 2.63H8.924a3.751 3.751 0 1 1 0-1.5h2.641a3.09 3.09 0 0 0 2.795-1.77l3.06-6.48-3.06-6.48a3.09 3.09 0 0 0-2.795-1.77H8.925a3.751 3.751 0 1 1-3.675-4.5m0 19.5a2.25 2.25 0 1 0 0 4.5 2.25 2.25 0 0 0 0-4.5m0-18a2.25 2.25 0 1 0 0 4.5 2.25 2.25 0 0 0 0-4.5"/></svg>
